X:239
T:Kadrilj #239
T: efter Björkström
M:2/4
L:1/16
K: Bb
Q: 100
|f4 (=ef)gf| d2B2 {c}B2AB | (c2F2 ) (=EF)GA| (Bc)de (=ef)gf| f4 (=ef)gf| d2B2 {c}B2AB |
(c2F2 ) (=EF)GA| B4 z4:: [K:F] c3B c2f2| (a2f2) (a2f2)| g2^f2 g2e2| (=fe)fg f2ed|  c3B c2f2|
(a2f2) (a2f2)| g2^f2 g2e2| =f4 z4:: [K:Bb] d4 (ed)cd| B4 cBAB| (c3B) (A2G2)| F2(g2 f2e2)|
d4 (ed)cd| (fe)ez (ed)dz| (dc)cz| (BA)GA| B4 z4 :: d4 dddd| (g2a2) (b2a2)|
a3g (^fg)af| g4 z2^f2| (=fe)ez| (ed)dz| (dc)cz (cB)Bz| (AB)cd (fe)cA| B4z4 :|

